X:162
T: Piros, piros szekfű...
M: 2/4
L: 1/4
K: Bb
d/d/f/e/ | d d | 
c/c/d/c/ | B B | 
c/c/d/c/ | B c | 
F/F/B/_A/ | G G | 

